src/assets/images/svg/social/logo-linkedin.svg

<svg width="40" height="40" viewBox="0 0 40 40" fill="none" xmlns="http://www.w3.org/2000/svg">
<path d="M34.7008 2.5H5.49062C3.89453 2.5 2.5 3.64844 2.5 5.22578V34.5008C2.5 36.0867 3.89453 37.5 5.49062 37.5H34.6922C36.2969 37.5 37.5 36.0773 37.5 34.5008V5.22578C37.5094 3.64844 36.2969 2.5 34.7008 2.5ZM13.3492 31.6742H8.33516V16.0844H13.3492V31.6742ZM11.0156 13.7141H10.9797C9.375 13.7141 8.33594 12.5195 8.33594 11.0242C8.33594 9.50156 9.40234 8.33516 11.043 8.33516C12.6836 8.33516 13.6875 9.49297 13.7234 11.0242C13.7227 12.5195 12.6836 13.7141 11.0156 13.7141ZM31.6742 31.6742H26.6602V23.15C26.6602 21.1078 25.9305 19.7125 24.1164 19.7125C22.7305 19.7125 21.9102 20.65 21.5453 21.5633C21.4086 21.8914 21.3719 22.3383 21.3719 22.7945V31.6742H16.3578V16.0844H21.3719V18.2539C22.1016 17.2148 23.2414 15.7195 25.8937 15.7195C29.1852 15.7195 31.675 17.8891 31.675 22.5664L31.6742 31.6742Z" fill="url(#paint0_linear_93_599)"/>
<defs>
<linearGradient id="paint0_linear_93_599" x1="3" y1="20" x2="27.5" y2="20" gradientUnits="userSpaceOnUse">
<stop stop-color="#009DF8"/>
<stop offset="0.984475" stop-color="#708AF4"/>
</linearGradient>
</defs>
</svg>

<svg xmlns="http://www.w3.org/2000/svg" width="40" height="40" fill="none"><path fill="url(#a)" d="M34.7 2.5H5.49C3.896 2.5 2.5 3.648 2.5 5.226V34.5c0 1.586 1.395 2.999 2.99 2.999h29.202c1.605 0 2.808-1.423 2.808-3V5.227c.01-1.578-1.203-2.726-2.8-2.726ZM13.35 31.674H8.334v-15.59h5.014v15.59Zm-2.334-17.96h-.036c-1.605 0-2.644-1.194-2.644-2.69 0-1.522 1.066-2.689 2.707-2.689 1.64 0 2.645 1.158 2.68 2.69 0 1.495-1.04 2.69-2.707 2.69Zm20.658 17.96H26.66V23.15c0-2.042-.73-3.438-2.544-3.438-1.386 0-2.206.938-2.57 1.851-.137.328-.174.775-.174 1.232v8.88h-5.014v-15.59h5.014v2.169c.73-1.04 1.87-2.535 4.522-2.535 3.291 0 5.781 2.17 5.781 6.847v9.108Z"/><defs><linearGradient id="a" x1="3" x2="27.5" y1="20" y2="20" gradientUnits="userSpaceOnUse"><stop stop-color="#009DF8"/><stop offset=".984" stop-color="#708AF4"/></linearGradient></defs></svg>
